X: 33383
T: Queen's
R: hornpipe
M: 4/4
K: Gmajor
|:(3def|g>dB>d e>cA>F|G>FG>B A>GE>G|D>FA>B c>AF>G|A>dd>^c d2 (3def|
g>dB>d e>cA>F|G>FG>B A>GE>G|D>FA>B c>AF>A|A>GG>F G2:|
|:(3B^cd|e2ef g>e^c>e|d>^cd>e f2d2|g>fe>d ^c>AB>G|A>dd>^c d2 (3def|
g>dB>d e>cA>F|G>FG>B A>GE>G|D>FA>B c>AF>A|A>GG>F G2:|

